X:1
T:Lublin, 10.8.10.8 D
T:Lublin, 10.8.10.8 D
T:Lucy Jane Rider Meyer, 1884
T:Public Domain Courtesy of the Cyber Hymnal™
C:Lucy Jane Rider Meyer, 1884
Z:Public Domain
Z:Courtesy of the Cyber Hymnal™
%%score 1 ( 2 3 )
L:1/8
Q:1/4=95
M:4/4
K:G
V:1 treble 
V:2 bass 
V:3 bass 
V:1
 [B,D][B,D] [B,D]2 [CE]2 [B,D]2 | [B,D][B,D] [B,D]2 [B,G]2 [B,D]2 | [CD][CD] [CD]2 [CA]2 [CD]2 | %3
 [B,G]2 [DA]2 [DB]4 | [Dc][Dc] [Dd]2 [DB]2 [B,G]2 | [DA][DA] [^DB]2 [EG]2 [CE]2 | %6
 [B,D][B,D] [B,D]2 [DG]2 [DB]2 | [CA]2 [CA]2 [B,G]4 | [DB][DB] [Dd]2 [DB]2 [^DA]2 | %9
 [EG][EG] [^DB]2 [EG]2 [CE]2 | [B,D][B,D] [B,D]2 [CE]2 [B,D]2 | [DG]2 [DB]2 [DA]4 | %12
 [DB][DB] [Dd]2 [DB]2 [^DA]2 | [EG][EG] [^DB]2 [EG]2 [CE]2 | [B,D][B,D] [B,D]2 [DG]2 [DB]2 | %15
 [CA]2 [CA]2 [B,G]4 |] %16
V:2
 [G,,G,][G,,G,] [G,,G,]2 [G,,G,]2 [G,,G,]2 | [G,,G,][G,,G,] [G,,G,]2 [G,,D,]2 [G,,G,]2 | %2
 [D,F,][D,F,] [D,F,]2 [D,F,]2 [D,F,]2 | [E,G,]2 [D,F,]2 G,4 | [F,A,][F,A,] [F,A,]2 G,2 G,2 | %5
 [D,F,][D,F,] [B,,F,]2 [C,C]2 [C,G,]2 | [D,G,][D,G,] [D,G,]2 [B,,G,]2 [G,,G,]2 | %7
 [D,F,]2 [D,F,]2 [G,,G,]4 | G,G, [G,B,]2 G,2 [F,B,]2 | [E,B,][E,B,] [B,,A,]2 [C,G,]2 [C,G,]2 | %10
 [G,,G,][G,,G,] [G,,G,]2 [G,,G,]2 [G,,G,]2 | [B,,G,]2 [G,,G,]2 [D,F,]4 | G,G, [G,B,]2 G,2 [F,B,]2 | %13
 [E,B,][E,B,] [B,,A,]2 [C,G,]2 [C,G,]2 | [D,G,][D,G,] [D,G,]2 [B,,G,]2 [G,,G,]2 | %15
 [D,F,]2 [D,F,]2 [G,,G,]4 |] %16
V:3
 x8 | x8 | x8 | x4 G,4 | x4 G,2 G,2 | x8 | x8 | x8 | G,G, x G,2 x3 | x8 | x8 | x8 | G,G, x G,2 x3 | %13
 x8 | x8 | x8 |] %16

